src/images/icons/feature-gateway.svg

<svg width="134px" height="134px" viewBox="0 0 134 134" xmlns="http://www.w3.org/2000/svg">
    <g stroke="none" stroke-width="1" fill="none" fill-rule="evenodd">
        <path d="M67.9922779,43.5670159 L86.9922779,54.4241588 C87.6154279,54.7802445 88,55.4429314 88,56.1606451 L88,77.8393549 C88,78.5570686 87.6154279,79.2197555 86.9922779,79.5758412 L67.9922779,90.4329841 C67.3774125,90.7843357 66.6225875,90.7843357 66.0077221,90.4329841 L47.0077221,79.5758412 C46.3845721,79.2197555 46,78.5570686 46,77.8393549 L46,56.1606451 C46,55.4429314 46.3845721,54.7802445 47.0077221,54.4241588 L66.0077221,43.5670159 C66.6225875,43.2156643 67.3774125,43.2156643 67.9922779,43.5670159 Z M66.5038347,47.4944386 L50.1886121,56.8187233 C49.8770665,56.9967743 49.6848032,57.3281013 49.6848032,57.6869367 L49.6848032,76.3106307 C49.6848032,76.6694661 49.8770665,77.0007931 50.1886121,77.1788441 L66.5038347,86.5031288 C66.8112801,86.6788364 67.1887247,86.6788449 67.496178,86.503151 L83.8088912,77.1812689 C84.1204587,77.003224 84.312739,76.6718848 84.312739,76.3130334 L84.312739,57.684534 C84.312739,57.3256826 84.1204587,56.9943434 83.8088912,56.8162985 L67.496178,47.4944164 C67.1887247,47.3187225 66.8112801,47.318731 66.5038347,47.4944386 Z M62.5759611,57.6921872 C62.6730073,57.6921872 62.7678821,57.7206183 62.8486294,57.7738977 L76.2176938,66.5951925 C76.4435796,66.7442385 76.5046185,67.0463027 76.354028,67.2698717 C76.3180286,67.3233168 76.2716928,67.3691774 76.2176938,67.4048075 L62.8486294,76.2261023 C62.6227436,76.3751483 62.3175491,76.3147355 62.1669585,76.0911664 C62.113127,76.0112473 62.0844012,75.9173456 62.0844012,75.8212947 L62.0844012,58.1787053 C62.0844012,57.9100087 62.3044801,57.6921872 62.5759611,57.6921872 Z" fill="#E8D49B" fill-rule="nonzero"></path>
    </g>
</svg>

<svg xmlns="http://www.w3.org/2000/svg" viewBox="0 0 134 134">
  <path
    d="M67.992 43.567l19 10.857A2 2 0 0188 56.161v21.678a2 2 0 01-1.008 1.737l-19 10.857a2 2 0 01-1.984 0l-19-10.857A2 2 0 0146 77.839V56.161a2 2 0 011.008-1.737l19-10.857a2 2 0 011.984 0zm-1.488 3.927L50.189 56.82a1 1 0 00-.504.868V76.31a1 1 0 00.504.868l16.315 9.324a1 1 0 00.992 0l16.313-9.322a1 1 0 00.504-.868V57.685a1 1 0 00-.504-.869l-16.313-9.322a1 1 0 00-.992 0zm-3.928 10.198c.097 0 .192.029.273.082l13.369 8.821a.483.483 0 010 .81l-13.37 8.821a.495.495 0 01-.681-.135.483.483 0 01-.083-.27V58.18a.49.49 0 01.492-.487z"
    fill="#E8D49B" fill-rule="nonzero" />
</svg>
